mentis/img/vacancy.svg

<?xml version="1.0" encoding="UTF-8"?>
<svg width="44px" height="44px" viewBox="0 0 44 44" version="1.1" xmlns="http://www.w3.org/2000/svg" xmlns:xlink="http://www.w3.org/1999/xlink">
    <title>C31B6550-CF40-48F2-A9C6-A7F141E020A3</title>
    <g id="Page-1" stroke="none" stroke-width="1" fill="none" fill-rule="evenodd">
        <g id="TEAM" transform="translate(-363, -2785)">
            <g id="suitcase-work-job-mail-group" transform="translate(363, 2785)">
                <polygon id="Path" points="0 44 44 44 44 0 0 0"></polygon>
                <path d="M6,15 L6,9.6 C6,7.6117749 7.56700338,6 9.5,6 L13,6" id="Path" stroke="#FFFFFF" stroke-width="2" stroke-linecap="round" stroke-linejoin="round"></path>
                <path d="M38,29 L38,34.4 C38,36.3882251 36.3882251,38 34.4,38 L29,38" id="Path" stroke="#FFFFFF" stroke-width="2" stroke-linecap="round" stroke-linejoin="round"></path>
                <path d="M27.0909091,22 L33.9090909,22 C36.1684376,22 38,20.0972102 38,17.75 L38,9.25 C38,6.90278981 36.1684376,5 33.9090909,5 L22.0909091,5 C19.8315624,5 18,6.90278981 18,9.25 L18,14.4444444" id="Path" stroke="#FFFFFF" stroke-width="2" stroke-linecap="round" stroke-linejoin="round"></path>
                <path d="M24,12.0000225 L27.580452,13.7816225 C28.1655413,14.0727624 28.8346207,14.0727624 29.41971,13.7816225 L33,12.0000225" id="Path" stroke="#FFFFFF" stroke-width="2" stroke-linecap="round" stroke-linejoin="round"></path>
                <path d="M19,26 L19,22 C19,20.8954305 18.2040618,20 17.2222222,20 L12.7777778,20 C11.7959382,20 11,20.8954305 11,22 L11,26" id="Path" stroke="#FFFFFF" stroke-width="2" stroke-linecap="round" stroke-linejoin="round"></path>
                <rect id="Rectangle" stroke="#FFFFFF" stroke-width="2" stroke-linecap="round" stroke-linejoin="round" x="6" y="26" width="18" height="13" rx="1.5"></rect>
            </g>
        </g>
    </g>
</svg>

<svg width="44" height="44" xmlns="http://www.w3.org/2000/svg"><g fill="none" fill-rule="evenodd"><path d="M0 44h44V0H0z"/><path d="M6 15V9.6C6 7.612 7.567 6 9.5 6H13m25 23v5.4a3.6 3.6 0 01-3.6 3.6H29m-1.91-16h6.82c2.258 0 4.09-1.903 4.09-4.25v-8.5C38 6.903 36.168 5 33.91 5H22.09C19.833 5 18 6.903 18 9.25v5.194" stroke="#FFF" stroke-width="2" stroke-linecap="round" stroke-linejoin="round"/><path d="M24 12l3.58 1.782a2.046 2.046 0 001.84 0L33 12M19 26v-4c0-1.105-.796-2-1.778-2h-4.444c-.982 0-1.778.895-1.778 2v4" stroke="#FFF" stroke-width="2" stroke-linecap="round" stroke-linejoin="round"/><rect stroke="#FFF" stroke-width="2" stroke-linecap="round" stroke-linejoin="round" x="6" y="26" width="18" height="13" rx="1.5"/></g></svg>
